; generated by PrusaSlicer 2.3.1+arm64 on 2022-01-27 at 19:48:31 UTC

; 

; external perimeters extrusion width = 0.45mm
; perimeters extrusion width = 0.45mm
; infill extrusion width = 0.45mm
; solid infill extrusion width = 0.45mm
; top infill extrusion width = 0.40mm
; support material extrusion width = 0.35mm
; first layer extrusion width = 0.42mm

M73 P0 R69
M73 Q0 S69
M201 X1000 Y1000 Z200 E5000 ; sets maximum accelerations, mm/sec^2
M203 X200 Y200 Z12 E120 ; sets maximum feedrates, mm/sec
M204 P1250 R1250 T1250 ; sets acceleration (P, T) and retract acceleration (R), mm/sec^2
M205 X8.00 Y8.00 Z0.40 E4.50 ; sets the jerk limits, mm/sec
M205 S0 T0 ; sets the minimum extruding and travel feed rate, mm/sec
M107
;TYPE:Custom
M862.3 P "MK3S" ; printer model check
M862.1 P0.4 ; nozzle diameter check
M115 U3.10.0 ; tell printer latest fw version
G90 ; use absolute coordinates
M83 ; extruder relative mode
M104 S215 ; set extruder temp
M140 S60 ; set bed temp
M190 S60 ; wait for bed temp
M109 S215 ; wait for extruder temp
G28 W ; home all without mesh bed level
G80 ; mesh bed leveling
G1 Y-3.0 F1000.0 ; go outside print area
G92 E0.0
G1 X60.0 E9.0 F1000.0 ; intro line
G1 X100.0 E12.5 F1000.0 ; intro line
G92 E0.0
M221 S95

; Don't change E values below. Excessive value can damage the printer.
M907 E430 ; set extruder motor current
G21 ; set units to millimeters
G90 ; use absolute coordinates
M83 ; use relative distances for extrusion
M900 K0.05 ; Filament gcode LA 1.5
M900 K30 ; Filament gcode LA 1.0
;LAYER_CHANGE
;Z:0.2
;HEIGHT:0.2
;BEFORE_LAYER_CHANGE
G92 E0.0
;0.2


G1 E-0.80000 F2100.000
G1 Z0.400 F10800.000
;AFTER_LAYER_CHANGE
;0.2
G1 X84.737 Y70.336
G1 Z0.200
G1 E0.80000 F2100.000
M204 S1000
;TYPE:Skirt
;WIDTH:0.42
G1 F1200.000
G1 X85.150 Y69.629 E0.02567
G1 X87.447 Y67.193 E0.10496
G1 X89.915 Y64.769 E0.10847
G1 X90.566 Y64.359 E0.02414
G1 X91.315 Y64.179 E0.02414
G1 X158.547 Y64.172 E2.10802
G1 X159.300 Y64.294 E0.02390
G1 X159.978 Y64.651 E0.02402
G1 X162.535 Y67.176 E0.11268
G1 X164.943 Y69.747 E0.11045
G1 X165.273 Y70.362 E0.02190
G1 X165.409 Y71.043 E0.02178
G1 X165.410 Y139.098 E2.13379
G1 X165.178 Y140.034 E0.03024
G1 X162.878 Y144.553 E0.15898
G1 X162.588 Y144.985 E0.01633
G1 X162.216 Y145.339 E0.01609
G1 X161.777 Y145.605 E0.01609
G1 X161.291 Y145.770 E0.01609
G1 X160.781 Y145.828 E0.01609
G1 X91.471 Y145.828 E2.17317
G1 X90.666 Y145.680 E0.02567
G1 X89.956 Y145.266 E0.02579
G1 X87.562 Y143.010 E0.10313
G1 X85.180 Y140.576 E0.10679
G1 X84.769 Y139.916 E0.02437
G1 X84.593 Y139.159 E0.02437
G1 X84.588 Y71.144 E2.13254
G1 X84.726 Y70.395 E0.02390
; printing object FOOD.03.stl id:0 copy 3
;WIPE_START
G1 F8640.000
G1 X85.150 Y69.629 E-0.20211
G1 X86.808 Y67.871 E-0.55789
;WIPE_END
G1 E-0.04000 F2100.000
G1 Z0.600 F10800.000
G1 X89.904 Y73.990
G1 Z0.200
G1 E0.80000 F2100.000
;TYPE:Support material interface
;WIDTH:0.35
G1 F1200.000
G1 X89.904 Y83.357 E0.23916
G1 X90.412 Y83.357 E0.01295
G1 X90.412 Y74.128 E0.23564
G1 X90.919 Y74.128 E0.01295
G1 X90.919 Y83.495 E0.23916
G1 X86.965 Y86.491 F10800.000
;TYPE:Support material
;WIDTH:0.42
G1 F1200.000
G1 X86.965 Y71.163 E0.48059
G1 X87.719 Y71.163 E0.02365
G1 X87.719 Y86.322 E0.47527
G1 X88.474 Y86.322 E0.02365
G1 X88.474 Y71.163 E0.47527
G1 X89.146 Y71.163 E0.02107
G1 X89.146 Y68.856 E0.07234
G1 X89.228 Y68.856 E0.00257
G1 X89.228 Y88.798 E0.62527
;WIPE_START
G1 F8640.000
G1 X89.228 Y85.507 E-0.76000
;WIPE_END
G1 E-0.04000 F2100.000
G1 Z0.600 F10800.000
G1 X103.596 Y88.109
G1 Z0.200
G1 E0.80000 F2100.000
;TYPE:Support material interface
;WIDTH:0.35
G1 F1200.000
G1 X103.596 Y69.514 E0.47480
G1 X103.089 Y69.514 E0.01295
G1 X103.089 Y87.971 E0.47127
G1 X102.581 Y87.971 E0.01295
G1 X102.581 Y69.514 E0.47127
M73 P0 R68
G1 X102.074 Y69.514 E0.01295
G1 X102.074 Y87.971 E0.47127
G1 X101.567 Y87.971 E0.01295
G1 X101.567 Y69.514 E0.47127
G1 X101.060 Y69.514 E0.01295
G1 X101.060 Y87.971 E0.47127
G1 X100.553 Y87.971 E0.01295
G1 X100.553 Y69.514 E0.47127
G1 X100.046 Y69.514 E0.01295
G1 X100.046 Y77.128 E0.19442
G1 X99.539 Y77.128 E0.01295
G1 X99.539 Y69.514 E0.19442
G1 X99.032 Y69.514 E0.01295
G1 X99.032 Y77.128 E0.19442
G1 X98.525 Y77.128 E0.01295
G1 X98.525 Y69.514 E0.19442
G1 X98.018 Y69.514 E0.01295
G1 X98.018 Y77.267 E0.19795
;WIPE_START
G1 F8640.000
G1 X98.018 Y73.975 E-0.76000
;WIPE_END
G1 E-0.04000 F2100.000
G1 Z0.600 F10800.000
G1 X98.018 Y80.219
G1 Z0.200
G1 E0.80000 F2100.000
G1 F1200.000
G1 X98.018 Y85.487 E0.13451
G1 X98.317 Y85.532 E0.00773
G1 X98.525 Y85.556 E0.00534
G1 X98.525 Y80.357 E0.13275
G1 X99.032 Y80.357 E0.01295
G1 X99.032 Y87.971 E0.19442
G1 X99.539 Y87.971 E0.01295
G1 X99.539 Y80.357 E0.19442
G1 X100.046 Y80.357 E0.01295
G1 X100.046 Y88.109 E0.19795
;WIPE_START
G1 F8640.000
G1 X100.046 Y84.818 E-0.76000
;WIPE_END
G1 E-0.04000 F2100.000
G1 Z0.600 F10800.000
G1 X98.525 Y88.109
G1 Z0.200
G1 E0.80000 F2100.000
G1 F1200.000
G1 X98.525 Y86.303 E0.04612
G1 X98.018 Y86.267 E0.01298
G1 X98.018 Y87.971 E0.04350
G1 X97.511 Y87.971 E0.01295
G1 X97.511 Y86.198 E0.04527
G1 X97.004 Y86.086 E0.01326
G1 X97.004 Y87.971 E0.04812
G1 X96.496 Y87.971 E0.01295
G1 X96.496 Y85.928 E0.05216
G1 X95.989 Y85.721 E0.01399
G1 X95.989 Y87.971 E0.05746
G1 X95.482 Y87.971 E0.01295
G1 X95.482 Y85.459 E0.06415
G1 X94.975 Y85.139 E0.01530
G1 X94.975 Y87.971 E0.07231
M73 Q1 S69
G1 X94.468 Y87.971 E0.01295
G1 X94.468 Y73.777 E0.36243
M73 P1 R68
G1 X94.975 Y73.350 E0.01692
G1 X94.975 Y84.211 E0.27733
G1 X95.482 Y84.533 E0.01533
G1 X95.482 Y72.992 E0.29468
G1 X95.989 Y72.683 E0.01517
G1 X95.989 Y84.807 E0.30958
G1 X96.496 Y85.037 E0.01422
G1 X96.496 Y72.418 E0.32221
G1 X96.723 Y72.300 E0.00652
G1 X96.496 Y71.809 E0.01382
G1 X96.496 Y69.514 E0.05859
G1 X97.004 Y69.514 E0.01295
G1 X97.004 Y85.227 E0.40120
G1 X97.511 Y85.377 E0.01350
G1 X97.511 Y69.376 E0.40856
;WIPE_START
G1 F8640.000
G1 X97.511 Y72.667 E-0.76000
;WIPE_END
G1 E-0.04000 F2100.000
G1 Z0.600 F10800.000
G1 X95.989 Y71.970
G1 Z0.200
G1 E0.80000 F2100.000
G1 F1200.000
G1 X95.989 Y69.514 E0.06270
G1 X95.482 Y69.514 E0.01295
G1 X95.482 Y72.054 E0.06486
G1 X94.975 Y72.339 E0.01484
G1 X94.975 Y69.514 E0.07212
G1 X94.468 Y69.514 E0.01295
G1 X94.468 Y72.681 E0.08087
G1 X93.961 Y73.098 E0.01675
G1 X93.961 Y71.821 E0.03259
G1 X93.454 Y71.821 E0.01295
G1 X93.454 Y73.616 E0.04582
G1 X93.138 Y74.006 E0.01281
G1 X92.947 Y74.275 E0.00844
G1 X92.947 Y71.821 E0.06266
G1 X92.440 Y71.821 E0.01295
G1 X92.440 Y75.140 E0.08473
G1 X92.174 Y75.699 E0.01581
G1 X91.933 Y76.301 E0.01656
G1 X91.933 Y74.128 E0.05547
G1 X91.426 Y74.128 E0.01295
G1 X91.426 Y83.357 E0.23564
G1 X91.933 Y83.357 E0.01295
G1 X91.933 Y77.447 E0.15089
G1 X92.336 Y77.562 E0.01071
G1 X92.440 Y77.209 E0.00940
G1 X92.440 Y85.664 E0.21589
G1 X92.947 Y85.664 E0.01295
G1 X92.947 Y75.846 E0.25069
G1 X93.225 Y75.315 E0.01532
G1 X93.454 Y74.953 E0.01092
G1 X93.454 Y85.664 E0.27348
G1 X93.961 Y85.664 E0.01295
G1 X93.961 Y74.092 E0.29548
;WIPE_START
G1 F8640.000
G1 X93.961 Y77.383 E-0.76000
;WIPE_END
G1 E-0.04000 F2100.000
G1 Z0.600 F10800.000
G1 X106.131 Y73.990
G1 Z0.200
G1 E0.80000 F2100.000
G1 F1200.000
G1 X106.131 Y76.099 E0.05384
G1 X105.892 Y75.581 E0.01455
G1 X105.624 Y75.098 E0.01412
G1 X105.624 Y71.821 E0.08367
G1 X105.117 Y71.821 E0.01295
G1 X105.117 Y74.345 E0.06443
G1 X104.769 Y73.892 E0.01457
G1 X104.610 Y74.012 E0.00509
G1 X104.610 Y71.821 E0.05594
G1 X104.103 Y71.821 E0.01295
G1 X104.103 Y85.664 E0.35345
M73 Q1 S68
G1 X104.610 Y85.664 E0.01295
G1 X104.610 Y74.964 E0.27319
G1 X104.860 Y75.383 E0.01245
G1 X105.117 Y75.903 E0.01481
G1 X105.117 Y85.664 E0.24922
G1 X105.624 Y85.664 E0.01295
G1 X105.624 Y77.550 E0.20718
G1 X105.728 Y78.266 E0.01849
G1 X105.767 Y78.855 E0.01506
G1 X105.768 Y79.422 E0.01448
G1 X105.726 Y80.102 E0.01740
G1 X106.131 Y80.151 E0.01041
G1 X106.131 Y83.357 E0.08186
G1 X106.638 Y83.357 E0.01295
G1 X106.638 Y74.128 E0.23564
G1 X107.145 Y74.128 E0.01295
G1 X107.145 Y83.357 E0.23564
G1 X107.652 Y83.357 E0.01295
G1 X107.652 Y74.128 E0.23564
G1 X108.159 Y74.128 E0.01295
G1 X108.159 Y83.495 E0.23916
G1 X111.098 Y86.491 F10800.000
;TYPE:Support material
;WIDTH:0.42
G1 F1200.000
G1 X111.098 Y71.163 E0.48059
G1 X110.344 Y71.163 E0.02365
G1 X110.344 Y86.322 E0.47527
G1 X109.590 Y86.322 E0.02365
G1 X109.590 Y71.163 E0.47527
G1 X108.918 Y71.163 E0.02107
G1 X108.918 Y68.856 E0.07234
G1 X108.836 Y68.856 E0.00257
G1 X108.836 Y90.936 E0.69228
G1 X108.082 Y90.936 E0.02365
G1 X108.082 Y83.699 E0.22691
G1 X107.328 Y83.699 E0.02365
G1 X107.328 Y90.936 E0.22691
G1 X106.573 Y90.936 E0.02365
G1 X106.573 Y83.699 E0.22691
G1 X106.295 Y83.699 E0.00873
G1 X106.295 Y86.006 E0.07234
G1 X105.819 Y86.006 E0.01492
G1 X105.819 Y90.936 E0.15457
G1 X105.065 Y90.936 E0.02365
G1 X105.065 Y86.006 E0.15457
G1 X104.311 Y86.006 E0.02365
G1 X104.311 Y90.936 E0.15457
G1 X103.557 Y90.936 E0.02365
G1 X103.557 Y88.313 E0.08224
G1 X102.803 Y88.313 E0.02365
G1 X102.803 Y90.936 E0.08224
G1 X102.049 Y90.936 E0.02365
G1 X102.049 Y88.313 E0.08224
G1 X101.294 Y88.313 E0.02365
G1 X101.294 Y90.936 E0.08224
G1 X100.540 Y90.936 E0.02365
G1 X100.540 Y88.313 E0.08224
G1 X99.786 Y88.313 E0.02365
G1 X99.786 Y90.936 E0.08224
G1 X99.032 Y90.936 E0.02365
G1 X99.032 Y88.313 E0.08224
G1 X98.278 Y88.313 E0.02365
G1 X98.278 Y90.936 E0.08224
G1 X97.524 Y90.936 E0.02365
G1 X97.524 Y88.313 E0.08224
G1 X96.769 Y88.313 E0.02365
G1 X96.769 Y90.936 E0.08224
G1 X96.015 Y90.936 E0.02365
G1 X96.015 Y88.313 E0.08224
G1 X95.261 Y88.313 E0.02365
G1 X95.261 Y90.936 E0.08224
G1 X94.507 Y90.936 E0.02365
G1 X94.507 Y88.313 E0.08224
G1 X94.076 Y88.313 E0.01352
G1 X94.076 Y86.006 E0.07234
G1 X93.753 Y86.006 E0.01012
G1 X93.753 Y90.936 E0.15457
G1 X92.999 Y90.936 E0.02365
G1 X92.999 Y86.006 E0.15457
G1 X92.244 Y86.006 E0.02365
G1 X92.244 Y90.936 E0.15457
G1 X91.490 Y90.936 E0.02365
G1 X91.490 Y83.699 E0.22691
G1 X90.736 Y83.699 E0.02365
G1 X90.736 Y88.629 E0.15457
G1 X89.982 Y88.629 E0.02365
G1 X89.982 Y83.699 E0.15457
G1 X89.461 Y83.699 E0.01632
G1 X89.461 Y73.786 E0.31080
G1 X89.982 Y73.786 E0.01632
G1 X89.982 Y68.856 E0.15457
G1 X90.736 Y68.856 E0.02365
G1 X90.736 Y73.786 E0.15457
G1 X91.490 Y73.786 E0.02365
G1 X91.490 Y66.549 E0.22691
G1 X92.244 Y66.549 E0.02365
G1 X92.244 Y71.479 E0.15457
G1 X92.999 Y71.479 E0.02365
G1 X92.999 Y66.549 E0.15457
G1 X93.753 Y66.549 E0.02365
G1 X93.753 Y71.479 E0.15457
G1 X94.076 Y71.479 E0.01012
G1 X94.076 Y69.172 E0.07234
G1 X94.507 Y69.172 E0.01352
G1 X94.507 Y66.549 E0.08224
G1 X95.261 Y66.549 E0.02365
G1 X95.261 Y69.172 E0.08224
G1 X96.015 Y69.172 E0.02365
G1 X96.015 Y66.549 E0.08224
G1 X96.769 Y66.549 E0.02365
G1 X96.769 Y69.172 E0.08224
G1 X97.524 Y69.172 E0.02365
G1 X97.524 Y66.549 E0.08224
G1 X98.278 Y66.549 E0.02365
G1 X98.278 Y69.172 E0.08224
G1 X99.032 Y69.172 E0.02365
G1 X99.032 Y66.549 E0.08224
G1 X99.786 Y66.549 E0.02365
G1 X99.786 Y69.172 E0.08224
G1 X100.540 Y69.172 E0.02365
G1 X100.540 Y66.549 E0.08224
G1 X101.294 Y66.549 E0.02365
G1 X101.294 Y69.172 E0.08224
G1 X102.049 Y69.172 E0.02365
G1 X102.049 Y66.549 E0.08224
G1 X102.803 Y66.549 E0.02365
G1 X102.803 Y69.172 E0.08224
G1 X103.557 Y69.172 E0.02365
G1 X103.557 Y66.549 E0.08224
G1 X104.311 Y66.549 E0.02365
G1 X104.311 Y71.479 E0.15457
G1 X105.065 Y71.479 E0.02365
G1 X105.065 Y66.549 E0.15457
G1 X105.819 Y66.549 E0.02365
G1 X105.819 Y71.479 E0.15457
G1 X106.295 Y71.479 E0.01492
G1 X106.295 Y73.786 E0.07234
G1 X106.573 Y73.786 E0.00873
G1 X106.573 Y66.549 E0.22691
G1 X106.611 Y66.549 E0.00118
G1 X106.611 Y68.856 E0.07234
G1 X107.328 Y68.856 E0.02247
G1 X107.328 Y73.786 E0.15457
G1 X108.082 Y73.786 E0.02365
G1 X108.082 Y68.687 E0.15989
;WIPE_START
G1 F8640.000
G1 X108.082 Y71.978 E-0.76000
;WIPE_END
G1 E-0.04000 F2100.000
G1 Z0.600 F10800.000
G1 X106.136 Y77.997
G1 Z0.200
G1 E0.80000 F2100.000
;TYPE:External perimeter
;WIDTH:0.18502
G1 F1200.000
G1 X106.102 Y77.676 E0.00381
G1 X105.962 Y76.995 E0.00821
G1 X105.866 Y76.682 E0.00387
; stop printing object FOOD.03.stl id:0 copy 3
; printing object FOOD.03.stl id:0 copy 2
;WIPE_START
G1 F8640.000
G1 X105.962 Y76.995 E-0.07560
G1 X106.102 Y77.676 E-0.16053
G1 X106.136 Y77.997 E-0.07447
;WIPE_END
G1 E-0.48940 F2100.000
G1 Z0.600 F10800.000
G1 X115.873 Y73.990
G1 Z0.200
G1 E0.80000 F2100.000
;TYPE:Support material interface
;WIDTH:0.35
G1 F1200.000
G1 X115.873 Y83.357 E0.23916
G1 X116.380 Y83.357 E0.01295
G1 X116.380 Y74.128 E0.23564
G1 X116.887 Y74.128 E0.01295
G1 X116.887 Y83.495 E0.23916
G1 X112.933 Y86.491 F10800.000
;TYPE:Support material
;WIDTH:0.42
G1 F1200.000
G1 X112.933 Y71.163 E0.48059
G1 X113.688 Y71.163 E0.02365
G1 X113.688 Y86.322 E0.47527
G1 X114.442 Y86.322 E0.02365
G1 X114.442 Y71.163 E0.47527
G1 X115.114 Y71.163 E0.02107
G1 X115.114 Y68.856 E0.07234
G1 X115.196 Y68.856 E0.00257
G1 X115.196 Y88.798 E0.62527
;WIPE_START
G1 F8640.000
G1 X115.196 Y85.507 E-0.76000
;WIPE_END
G1 E-0.04000 F2100.000
G1 Z0.600 F10800.000
G1 X129.564 Y88.109
G1 Z0.200
G1 E0.80000 F2100.000
;TYPE:Support material interface
;WIDTH:0.35
G1 F1200.000
G1 X129.564 Y69.514 E0.47480
G1 X129.057 Y69.514 E0.01295
G1 X129.057 Y87.971 E0.47127
M73 P2 R68
M73 Q2 S68
G1 X128.550 Y87.971 E0.01295
G1 X128.550 Y69.514 E0.47127
G1 X128.042 Y69.514 E0.01295
G1 X128.042 Y87.971 E0.47127
G1 X127.535 Y87.971 E0.01295
G1 X127.535 Y69.514 E0.47127
G1 X127.028 Y69.514 E0.01295
G1 X127.028 Y87.971 E0.47127
G1 X126.521 Y87.971 E0.01295
G1 X126.521 Y69.514 E0.47127
G1 X126.014 Y69.514 E0.01295
G1 X126.014 Y77.128 E0.19442
G1 X125.507 Y77.128 E0.01295
G1 X125.507 Y69.514 E0.19442
G1 X125.000 Y69.514 E0.01295
G1 X125.000 Y77.128 E0.19442
G1 X124.493 Y77.128 E0.01295
G1 X124.493 Y69.514 E0.19442
G1 X123.986 Y69.514 E0.01295
G1 X123.986 Y77.267 E0.19795
;WIPE_START
G1 F8640.000
G1 X123.986 Y73.975 E-0.76000
;WIPE_END
G1 E-0.04000 F2100.000
G1 Z0.600 F10800.000
G1 X123.986 Y80.219
G1 Z0.200
G1 E0.80000 F2100.000
G1 F1200.000
G1 X123.986 Y85.487 E0.13451
M73 P2 R67
G1 X124.285 Y85.532 E0.00773
G1 X124.493 Y85.556 E0.00534
G1 X124.493 Y80.357 E0.13275
G1 X125.000 Y80.357 E0.01295
G1 X125.000 Y87.971 E0.19442
G1 X125.507 Y87.971 E0.01295
G1 X125.507 Y80.357 E0.19442
G1 X126.014 Y80.357 E0.01295
G1 X126.014 Y88.109 E0.19795
;WIPE_START
G1 F8640.000
G1 X126.014 Y84.818 E-0.76000
;WIPE_END
G1 E-0.04000 F2100.000
G1 Z0.600 F10800.000
G1 X124.493 Y88.109
G1 Z0.200
G1 E0.80000 F2100.000
G1 F1200.000
G1 X124.493 Y86.303 E0.04612
G1 X123.986 Y86.267 E0.01298
G1 X123.986 Y87.971 E0.04350
G1 X123.479 Y87.971 E0.01295
G1 X123.479 Y86.198 E0.04527
G1 X122.972 Y86.086 E0.01326
G1 X122.972 Y87.971 E0.04812
G1 X122.465 Y87.971 E0.01295
G1 X122.465 Y85.928 E0.05216
G1 X121.958 Y85.721 E0.01399
G1 X121.958 Y87.971 E0.05746
G1 X121.450 Y87.971 E0.01295
G1 X121.450 Y85.459 E0.06415
G1 X120.943 Y85.139 E0.01530
G1 X120.943 Y87.971 E0.07231
G1 X120.436 Y87.971 E0.01295
G1 X120.436 Y73.777 E0.36243
G1 X120.943 Y73.350 E0.01692
G1 X120.943 Y84.211 E0.27733
G1 X121.450 Y84.533 E0.01533
G1 X121.450 Y72.992 E0.29468
G1 X121.958 Y72.683 E0.01517
G1 X121.958 Y84.807 E0.30958
G1 X122.465 Y85.037 E0.01422
G1 X122.465 Y72.418 E0.32221
G1 X122.691 Y72.300 E0.00652
G1 X122.465 Y71.809 E0.01382
G1 X122.465 Y69.514 E0.05859
G1 X122.972 Y69.514 E0.01295
G1 X122.972 Y85.227 E0.40120
G1 X123.479 Y85.377 E0.01350
G1 X123.479 Y69.376 E0.40856
;WIPE_START
G1 F8640.000
G1 X123.479 Y72.667 E-0.76000
;WIPE_END
G1 E-0.04000 F2100.000
G1 Z0.600 F10800.000
G1 X121.958 Y71.970
G1 Z0.200
G1 E0.80000 F2100.000
G1 F1200.000
G1 X121.958 Y69.514 E0.06270
G1 X121.450 Y69.514 E0.01295
G1 X121.450 Y72.054 E0.06486
G1 X120.943 Y72.339 E0.01484
G1 X120.943 Y69.514 E0.07212
G1 X120.436 Y69.514 E0.01295
G1 X120.436 Y72.681 E0.08087
G1 X119.929 Y73.098 E0.01675
G1 X119.929 Y71.821 E0.03259
G1 X119.422 Y71.821 E0.01295
G1 X119.422 Y73.616 E0.04582
G1 X119.106 Y74.006 E0.01281
G1 X118.915 Y74.275 E0.00844
G1 X118.915 Y71.821 E0.06266
G1 X118.408 Y71.821 E0.01295
G1 X118.408 Y75.140 E0.08473
G1 X118.142 Y75.699 E0.01581
G1 X117.901 Y76.301 E0.01656
G1 X117.901 Y74.128 E0.05547
G1 X117.394 Y74.128 E0.01295
G1 X117.394 Y83.357 E0.23564
G1 X117.901 Y83.357 E0.01295
