; generated by PrusaSlicer 2.3.1+arm64 on 2022-02-05 at 23:59:25 UTC

; 

; external perimeters extrusion width = 0.45mm
; perimeters extrusion width = 0.45mm
; infill extrusion width = 0.45mm
; solid infill extrusion width = 0.45mm
; top infill extrusion width = 0.40mm
; support material extrusion width = 0.35mm
; first layer extrusion width = 0.42mm

M73 P0 R20
M73 Q0 S20
M201 X1000 Y1000 Z200 E5000 ; sets maximum accelerations, mm/sec^2
M203 X200 Y200 Z12 E120 ; sets maximum feedrates, mm/sec
M204 P1250 R1250 T1250 ; sets acceleration (P, T) and retract acceleration (R), mm/sec^2
M205 X8.00 Y8.00 Z0.40 E4.50 ; sets the jerk limits, mm/sec
M205 S0 T0 ; sets the minimum extruding and travel feed rate, mm/sec
M107
;TYPE:Custom
M862.3 P "MK3S" ; printer model check
M862.1 P0.4 ; nozzle diameter check
M115 U3.10.1 ; tell printer latest fw version
G90 ; use absolute coordinates
M83 ; extruder relative mode
M104 S215 ; set extruder temp
M140 S60 ; set bed temp
M190 S60 ; wait for bed temp
M109 S215 ; wait for extruder temp
G28 W ; home all without mesh bed level
G80 ; mesh bed leveling
G1 Y-3.0 F1000.0 ; go outside print area
G92 E0.0
G1 X60.0 E9.0 F1000.0 ; intro line
G1 X100.0 E12.5 F1000.0 ; intro line
G92 E0.0
M221 S95

; Don't change E values below. Excessive value can damage the printer.
M907 E430 ; set extruder motor current
G21 ; set units to millimeters
G90 ; use absolute coordinates
M83 ; use relative distances for extrusion
M900 K0.05 ; Filament gcode LA 1.5
M900 K30 ; Filament gcode LA 1.0
;LAYER_CHANGE
;Z:0.2
;HEIGHT:0.2
;BEFORE_LAYER_CHANGE
G92 E0.0
;0.2


M73 P0 R19
G1 E-0.80000 F2100.000
G1 Z0.400 F10800.000
;AFTER_LAYER_CHANGE
;0.2
G1 X114.368 Y83.629
G1 Z0.200
G1 E0.80000 F2100.000
M204 S1000
;TYPE:Skirt
;WIDTH:0.42
G1 F1200.000
G1 X115.102 Y83.508 E0.02331
G1 X134.805 Y83.508 E0.61777
G1 X135.319 Y83.565 E0.01621
G1 X135.805 Y83.729 E0.01609
G1 X140.659 Y86.222 E0.17108
G1 X143.517 Y88.848 E0.12171
G1 X143.838 Y89.263 E0.01645
G1 X144.061 Y89.742 E0.01657
G1 X146.138 Y96.761 E0.22953
M73 Q0 S19
G1 X146.226 Y97.259 E0.01585
G1 X146.231 Y115.102 E0.55943
G1 X146.131 Y115.739 E0.02024
G1 X145.865 Y116.323 E0.02012
G1 X141.488 Y123.112 E0.25325
G1 X141.151 Y123.518 E0.01657
G1 X140.573 Y123.929 E0.02225
G1 X135.919 Y126.256 E0.16312
G1 X135.365 Y126.443 E0.01835
G1 X114.957 Y126.479 E0.63987
M73 P1 R19
M73 Q1 S19
G1 X114.169 Y126.258 E0.02567
G1 X109.403 Y123.818 E0.16787
G1 X106.538 Y121.206 E0.12157
G1 X106.081 Y120.591 E0.02402
G1 X103.805 Y112.986 E0.24890
G1 X103.770 Y94.902 E0.56701
G1 X103.869 Y94.264 E0.02024
G1 X104.136 Y93.677 E0.02024
G1 X108.511 Y86.892 E0.25313
G1 X108.834 Y86.498 E0.01597
G1 X109.405 Y86.083 E0.02213
G1 X114.314 Y83.655 E0.17172
; printing object FOOD.06.stl id:0 copy 0
;WIPE_START
G1 F8640.000
G1 X115.102 Y83.508 E-0.18497
G1 X117.592 Y83.508 E-0.57503
;WIPE_END
G1 E-0.04000 F2100.000
G1 Z0.600 F10800.000
G1 X115.197 Y92.915
G1 Z0.200
G1 E0.80000 F2100.000
;TYPE:Support material
G1 F1200.000
G1 X115.197 Y93.614 E0.02193
G1 X114.987 Y93.656 E0.00669
G1 X114.575 Y93.832 E0.01406
G1 X114.442 Y93.908 E0.00480
G1 X114.442 Y93.641 E0.00838
G1 X114.232 Y93.807 E0.00840
G1 X113.688 Y93.807 E0.01705
G1 X113.688 Y94.450 E0.02017
G1 X113.251 Y94.849 E0.01857
G1 X112.934 Y95.178 E0.01431
G1 X112.934 Y88.193 E0.21903
G1 X113.688 Y88.193 E0.02365
G1 X113.688 Y90.815 E0.08224
G1 X114.442 Y90.815 E0.02365
G1 X114.442 Y88.193 E0.08224
G1 X115.114 Y88.193 E0.02107
G1 X115.114 Y85.886 E0.07234
G1 X115.197 Y85.886 E0.00257
G1 X115.197 Y90.815 E0.15457
G1 X115.951 Y90.815 E0.02365
G1 X115.951 Y85.886 E0.15457
G1 X116.705 Y85.886 E0.02365
G1 X116.705 Y90.815 E0.15457
G1 X117.459 Y90.815 E0.02365
G1 X117.459 Y85.886 E0.15457
G1 X118.213 Y85.886 E0.02365
G1 X118.213 Y88.508 E0.08224
G1 X118.967 Y88.508 E0.02365
G1 X118.967 Y85.886 E0.08224
G1 X119.721 Y85.886 E0.02365
G1 X119.721 Y88.508 E0.08224
G1 X120.476 Y88.508 E0.02365
G1 X120.476 Y85.886 E0.08224
G1 X121.230 Y85.886 E0.02365
G1 X121.230 Y88.508 E0.08224
G1 X121.984 Y88.508 E0.02365
G1 X121.984 Y85.886 E0.08224
G1 X122.738 Y85.886 E0.02365
G1 X122.738 Y88.678 E0.08756
;WIPE_START
G1 F8640.000
G1 X122.738 Y85.886 E-0.64480
G1 X122.239 Y85.886 E-0.11520
;WIPE_END
G1 E-0.04000 F2100.000
G1 Z0.600 F10800.000
G1 X122.465 Y89.843
G1 Z0.200
G1 E0.80000 F2100.000
;TYPE:Support material interface
;WIDTH:0.35
G1 F1200.000
G1 X122.465 Y88.850 E0.02535
G1 X121.958 Y88.850 E0.01295
G1 X121.958 Y89.897 E0.02672
G1 X121.451 Y90.130 E0.01425
G1 X121.451 Y88.850 E0.03268
G1 X120.944 Y88.850 E0.01295
G1 X120.944 Y90.389 E0.03929
G1 X120.499 Y90.635 E0.01297
G1 X120.437 Y90.486 E0.00413
G1 X120.437 Y88.850 E0.04176
G1 X119.930 Y88.850 E0.01295
G1 X119.930 Y90.472 E0.04141
G1 X119.423 Y90.685 E0.01404
G1 X119.423 Y88.850 E0.04684
G1 X118.916 Y88.850 E0.01295
G1 X118.916 Y90.883 E0.05189
G1 X118.409 Y91.068 E0.01379
G1 X118.409 Y88.850 E0.05662
G1 X118.079 Y88.850 E0.00841
G1 X118.079 Y91.157 E0.05891
G1 X117.902 Y91.157 E0.00454
G1 X117.902 Y91.253 E0.00245
G1 X117.394 Y91.439 E0.01379
G1 X117.394 Y91.157 E0.00718
G1 X116.887 Y91.157 E0.01295
G1 X116.887 Y91.986 E0.02116
G1 X116.380 Y92.156 E0.01366
G1 X116.380 Y91.157 E0.02551
G1 X115.873 Y91.157 E0.01295
G1 X115.873 Y92.363 E0.03079
G1 X115.366 Y92.616 E0.01446
G1 X115.366 Y91.157 E0.03724
G1 X114.859 Y91.157 E0.01295
G1 X114.859 Y92.921 E0.04503
G1 X114.352 Y93.280 E0.01587
G1 X114.352 Y91.157 E0.05419
G1 X113.845 Y91.157 E0.01295
G1 X113.845 Y93.603 E0.06244
G1 X112.180 Y96.475 F10800.000
;TYPE:Support material
;WIDTH:0.42
G1 F1200.000
G1 X112.180 Y88.193 E0.25967
G1 X111.426 Y88.193 E0.02365
G1 X111.426 Y98.065 E0.30953
G1 X109.917 Y97.906 F10800.000
G1 F1200.000
G1 X109.917 Y95.114 E0.08756
G1 X110.500 Y95.114 E0.01827
G1 X110.500 Y88.193 E0.21701
G1 X110.672 Y88.193 E0.00537
G1 X110.672 Y97.906 E0.30457
G1 X110.802 Y98.642 F10800.000
;TYPE:Support material interface
;WIDTH:0.35
M73 Q2 S19
G1 F1200.000
G1 X110.802 Y98.079 E0.01439
G1 X110.295 Y98.079 E0.01295
G1 X110.295 Y100.843 E0.07059
G1 X110.254 Y101.925 E0.02765
M73 P2 R19
G1 X109.883 Y101.874 E0.00956
G1 X109.788 Y102.564 E0.01778
G1 X109.788 Y98.079 E0.11453
G1 X109.281 Y98.079 E0.01295
G1 X109.281 Y107.307 E0.23564
G1 X109.468 Y107.307 E0.00477
G1 X109.478 Y106.872 E0.01111
G1 X109.552 Y106.204 E0.01716
G1 X109.658 Y105.654 E0.01432
G1 X109.788 Y105.137 E0.01360
G1 X109.788 Y104.679 E0.01169
;WIPE_START
G1 F8640.000
G1 X109.788 Y105.137 E-0.10575
G1 X109.658 Y105.654 E-0.12296
G1 X109.552 Y106.204 E-0.12948
G1 X109.478 Y106.872 E-0.15517
G1 X109.468 Y107.307 E-0.10045
G1 X109.281 Y107.307 E-0.04309
G1 X109.281 Y106.861 E-0.10310
;WIPE_END
G1 E-0.04000 F2100.000
G1 Z0.600 F10800.000
G1 X112.831 Y102.595
G1 Z0.200
G1 E0.80000 F2100.000
G1 F1200.000
G1 X112.831 Y106.086 E0.08915
G1 X113.042 Y106.942 E0.02251
G1 X113.338 Y107.840 E0.02414
G1 X113.338 Y101.674 E0.15744
G1 X113.493 Y101.338 E0.00946
G1 X113.845 Y100.664 E0.01940
G1 X113.845 Y109.077 E0.21480
G1 X114.352 Y110.119 E0.02959
G1 X114.352 Y99.799 E0.26351
G1 X114.859 Y98.971 E0.02479
G1 X114.859 Y111.043 E0.30826
G1 X115.366 Y111.963 E0.02682
G1 X115.366 Y98.143 E0.35288
G1 X115.873 Y97.393 E0.02310
G1 X115.873 Y112.818 E0.39384
G1 X116.182 Y113.307 E0.01478
G1 X116.380 Y113.582 E0.00866
G1 X116.380 Y96.724 E0.43047
G1 X116.887 Y96.131 E0.01993
G1 X116.887 Y114.210 E0.46163
G1 X117.394 Y114.726 E0.01849
G1 X117.394 Y95.560 E0.48938
G1 X117.902 Y95.070 E0.01802
G1 X117.902 Y115.126 E0.51212
G1 X118.409 Y115.448 E0.01534
G1 X118.409 Y94.641 E0.53128
G1 X118.916 Y94.273 E0.01600
G1 X118.916 Y115.711 E0.54739
G1 X119.423 Y115.924 E0.01404
G1 X119.423 Y93.971 E0.56053
M73 P3 R19
M73 Q3 S19
G1 X119.930 Y93.729 E0.01435
G1 X119.930 Y116.098 E0.57116
G1 X120.437 Y116.245 E0.01348
G1 X120.437 Y93.539 E0.57978
G1 X120.944 Y93.404 E0.01340
G1 X120.944 Y116.511 E0.59000
;WIPE_START
G1 F8640.000
G1 X120.944 Y113.219 E-0.76000
;WIPE_END
G1 E-0.04000 F2100.000
G1 Z0.600 F10800.000
G1 X119.930 Y121.288
G1 Z0.200
G1 E0.80000 F2100.000
G1 F1200.000
G1 X119.930 Y119.433 E0.04736
G1 X119.423 Y119.345 E0.01314
G1 X119.423 Y121.150 E0.04607
G1 X118.916 Y121.150 E0.01295
G1 X118.916 Y119.340 E0.04620
G1 X118.781 Y119.308 E0.00354
G1 X118.409 Y119.040 E0.01171
G1 X118.409 Y121.150 E0.05388
G1 X118.079 Y121.150 E0.00841
G1 X118.079 Y118.842 E0.05891
G1 X117.902 Y118.842 E0.00454
G1 X117.902 Y118.620 E0.00569
G1 X117.478 Y118.226 E0.01477
G1 X117.394 Y118.326 E0.00335
G1 X117.394 Y118.842 E0.01318
G1 X116.887 Y118.842 E0.01295
G1 X116.887 Y118.230 E0.01564
G1 X116.380 Y117.808 E0.01685
G1 X116.380 Y118.842 E0.02642
G1 X115.873 Y118.842 E0.01295
G1 X115.873 Y117.386 E0.03719
G1 X115.366 Y116.987 E0.01648
G1 X115.366 Y118.842 E0.04738
G1 X114.859 Y118.842 E0.01295
G1 X114.859 Y116.603 E0.05718
G1 X114.569 Y116.384 E0.00927
G1 X114.794 Y116.087 E0.00951
G1 X114.352 Y115.820 E0.01319
G1 X114.352 Y118.842 E0.07718
G1 X113.845 Y118.842 E0.01295
G1 X113.845 Y115.322 E0.08989
G1 X114.442 Y115.673 F10800.000
;TYPE:Support material
;WIDTH:0.42
G1 F1200.000
G1 X114.442 Y110.996 E0.14664
G1 X114.086 Y110.349 E0.02315
G1 X113.688 Y109.550 E0.02801
G1 X113.688 Y111.473 E0.06031
G1 X112.934 Y110.183 E0.04684
G1 X112.934 Y109.484 E0.02193
G1 X112.786 Y109.503 E0.00469
G1 X112.573 Y108.654 E0.02742
G1 X112.475 Y108.022 E0.02006
G1 X112.438 Y107.602 E0.01322
G1 X112.399 Y105.656 E0.06103
G1 X112.338 Y105.238 E0.01323
G1 X112.305 Y104.649 E0.01850
G1 X112.180 Y104.649 E0.00392
G1 X112.180 Y108.846 E0.13158
G1 X111.657 Y107.934 E0.03295
G1 X111.426 Y107.635 E0.01186
G1 X111.426 Y100.339 E0.22877
G1 X111.558 Y100.416 E0.00480
G1 X111.679 Y100.443 E0.00389
G1 X111.940 Y100.422 E0.00820
G1 X112.180 Y100.313 E0.00828
G1 X112.180 Y100.737 E0.01328
G1 X112.934 Y100.737 E0.02365
G1 X112.934 Y99.618 E0.03507
G1 X113.327 Y99.097 E0.02047
G1 X113.688 Y98.543 E0.02073
G1 X113.688 Y100.249 E0.05350
G1 X114.442 Y98.996 E0.04585
G1 X114.442 Y97.728 E0.03976
G1 X115.197 Y97.728 E0.02365
G1 X115.197 Y98.090 E0.01134
G1 X114.442 Y97.481 F10800.000
G1 F1200.000
G1 X114.442 Y97.202 E0.00875
G1 X115.197 Y95.918 E0.04668
G1 X115.197 Y96.480 E0.01760
G1 X115.422 Y96.253 E0.01002
G1 X115.422 Y97.445 E0.03737
G1 X115.951 Y96.721 E0.02812
G1 X115.951 Y92.703 E0.12597
G1 X116.405 Y92.510 E0.01547
G1 X116.705 Y92.406 E0.00996
G1 X116.705 Y95.820 E0.10705
G1 X117.105 Y95.366 E0.01897
G1 X117.459 Y95.013 E0.01568
G1 X117.459 Y92.179 E0.08887
G1 X117.842 Y92.084 E0.01238
G1 X117.699 Y91.692 E0.01310
G1 X118.213 Y91.504 E0.01717
G1 X118.213 Y94.359 E0.08953
G1 X118.720 Y93.992 E0.01964
G1 X118.967 Y93.841 E0.00907
G1 X118.967 Y91.228 E0.08192
G1 X119.721 Y90.931 E0.02542
G1 X119.721 Y93.446 E0.07888
G1 X120.017 Y93.319 E0.01010
G1 X120.476 Y93.169 E0.01511
G1 X120.476 Y91.049 E0.06649
G1 X121.230 Y90.626 E0.02711
G1 X121.230 Y92.998 E0.07439
G1 X121.984 Y92.901 E0.02384
G1 X121.984 Y90.259 E0.08283
G1 X122.738 Y89.962 E0.02542
G1 X122.738 Y90.248 E0.00897
G1 X123.080 Y90.033 E0.01267
G1 X123.492 Y89.852 E0.01412
G1 X123.492 Y85.886 E0.12436
G1 X124.246 Y85.886 E0.02365
G1 X124.246 Y89.632 E0.11748
G1 X125.001 Y89.524 E0.02389
G1 X125.001 Y85.886 E0.11407
M73 Q4 S19
G1 X125.755 Y85.886 E0.02365
G1 X125.755 Y89.482 E0.11275
M73 P4 R19
G1 X126.509 Y89.497 E0.02365
G1 X126.509 Y85.886 E0.11324
G1 X127.263 Y85.886 E0.02365
G1 X127.263 Y89.576 E0.11571
G1 X127.654 Y89.657 E0.01252
G1 X128.017 Y89.764 E0.01187
G1 X128.017 Y85.886 E0.12160
G1 X128.771 Y85.886 E0.02365
G1 X128.771 Y90.063 E0.13099
G1 X129.284 Y90.340 E0.01825
G1 X129.526 Y90.503 E0.00915
G1 X129.526 Y90.183 E0.01004
G1 X129.273 Y90.084 E0.00851
G1 X129.273 Y88.508 E0.04941
G1 X129.526 Y88.508 E0.00793
G1 X129.526 Y85.886 E0.08224
G1 X130.280 Y85.886 E0.02365
G1 X130.280 Y88.508 E0.08224
G1 X131.034 Y88.508 E0.02365
G1 X131.034 Y85.886 E0.08224
G1 X131.788 Y85.886 E0.02365
G1 X131.788 Y88.508 E0.08224
G1 X132.264 Y88.508 E0.01492
G1 X132.264 Y90.815 E0.07234
G1 X132.542 Y90.815 E0.00873
G1 X132.542 Y85.886 E0.15457
G1 X133.296 Y85.886 E0.02365
G1 X133.296 Y90.815 E0.15457
G1 X134.051 Y90.815 E0.02365
G1 X134.051 Y85.886 E0.15457
G1 X134.805 Y85.886 E0.02365
G1 X134.805 Y90.815 E0.15457
G1 X135.559 Y90.815 E0.02365
G1 X135.559 Y88.193 E0.08224
G1 X136.313 Y88.193 E0.02365
G1 X136.313 Y90.985 E0.08756
;WIPE_START
G1 F8640.000
G1 X136.313 Y88.193 E-0.64480
G1 X135.814 Y88.193 E-0.11520
;WIPE_END
G1 E-0.04000 F2100.000
G1 Z0.600 F10800.000
G1 X136.156 Y94.673
G1 Z0.200
G1 E0.80000 F2100.000
;TYPE:Support material interface
;WIDTH:0.35
G1 F1200.000
G1 X136.156 Y91.157 E0.08977
G1 X135.649 Y91.157 E0.01295
G1 X135.649 Y94.170 E0.07691
G1 X135.142 Y93.859 E0.01518
G1 X135.142 Y91.157 E0.06898
G1 X134.635 Y91.157 E0.01295
G1 X134.635 Y93.002 E0.04709
G1 X134.128 Y92.606 E0.01642
G1 X134.128 Y91.157 E0.03700
G1 X133.621 Y91.157 E0.01295
G1 X133.621 Y92.196 E0.02652
G1 X133.114 Y91.778 E0.01677
G1 X133.114 Y91.157 E0.01586
G1 X132.607 Y91.157 E0.01295
G1 X132.607 Y91.608 E0.01151
G1 X132.491 Y91.748 E0.00464
G1 X132.100 Y91.366 E0.01397
G1 X132.100 Y91.157 E0.00533
G1 X131.922 Y91.157 E0.00454
G1 X131.922 Y88.850 E0.05891
G1 X131.593 Y88.850 E0.00841
G1 X131.593 Y90.937 E0.05327
G1 X131.086 Y90.577 E0.01587
G1 X131.086 Y88.850 E0.04409
G1 X130.578 Y88.850 E0.01295
G1 X130.578 Y90.287 E0.03669
G1 X130.071 Y90.041 E0.01439
G1 X130.071 Y88.712 E0.03394
G1 X130.280 Y90.327 F10800.000
;TYPE:Support material
;WIDTH:0.42
G1 F1200.000
G1 X130.280 Y93.619 E0.10320
G1 X131.034 Y93.901 E0.02524
G1 X131.034 Y90.948 E0.09258
G1 X131.517 Y91.311 E0.01895
G1 X131.788 Y91.548 E0.01127
G1 X131.788 Y94.275 E0.08551
G1 X132.028 Y94.420 E0.00879
G1 X132.542 Y94.800 E0.02005
G1 X132.542 Y92.225 E0.08075
G1 X132.775 Y91.942 E0.01147
G1 X133.296 Y92.372 E0.02118
G1 X133.296 Y95.520 E0.09872
G1 X133.708 Y96.003 E0.01990
G1 X134.051 Y96.486 E0.01857
G1 X134.051 Y92.980 E0.10995
G1 X134.805 Y93.568 E0.02999
G1 X134.805 Y97.400 E0.12015
;WIPE_START
G1 F8640.000
G1 X134.805 Y94.109 E-0.76000
;WIPE_END
G1 E-0.04000 F2100.000
G1 Z0.600 F10800.000
G1 X139.330 Y99.362
G1 Z0.200
G1 E0.80000 F2100.000
G1 F1200.000
G1 X139.330 Y88.193 E0.35020
G1 X138.575 Y88.193 E0.02365
G1 X138.575 Y97.472 E0.29094
G1 X138.170 Y96.915 E0.02159
G1 X137.821 Y96.512 E0.01672
G1 X137.821 Y88.193 E0.26084
G1 X137.067 Y88.193 E0.02365
G1 X137.067 Y95.859 E0.24039
G1 X136.637 Y95.618 E0.01546
G1 X136.313 Y95.518 E0.01064
G1 X136.313 Y95.039 E0.01500
G1 X135.559 Y94.519 E0.02872
G1 X135.559 Y99.016 E0.14098
G1 X135.885 Y99.607 E0.02118
G1 X136.313 Y100.464 E0.03003
G1 X136.313 Y98.558 E0.05978
G1 X137.067 Y99.851 E0.04694
G1 X137.067 Y100.548 E0.02185
G1 X137.216 Y100.529 E0.00472
G1 X137.383 Y101.193 E0.02145
G1 X137.525 Y102.089 E0.02846
G1 X137.558 Y102.506 E0.01312
G1 X137.611 Y104.546 E0.06399
G1 X137.673 Y105.351 E0.02530
G1 X137.821 Y105.351 E0.00465
G1 X137.821 Y100.836 E0.14155
;WIPE_START
G1 F8640.000
G1 X137.821 Y104.128 E-0.76000
;WIPE_END
G1 E-0.04000 F2100.000
G1 Z0.600 F10800.000
G1 X140.838 Y102.520
G1 Z0.200
G1 E0.80000 F2100.000
G1 F1200.000
G1 X140.838 Y90.500 E0.37690
M73 P5 R19
M73 Q5 S19
G1 X140.084 Y90.500 E0.02365
G1 X140.084 Y103.876 E0.41940
G1 X139.998 Y104.341 E0.01482
G1 X139.769 Y105.212 E0.02824
G1 X140.084 Y105.268 E0.01003
G1 X140.084 Y106.765 E0.04692
;WIPE_START
G1 F8640.000
G1 X140.084 Y105.268 E-0.34552
G1 X139.769 Y105.212 E-0.07388
G1 X139.998 Y104.341 E-0.20796
G1 X140.084 Y103.876 E-0.10918
G1 X140.084 Y103.774 E-0.02347
;WIPE_END
G1 E-0.04000 F2100.000
G1 Z0.600 F10800.000
G1 X137.171 Y107.389
G1 Z0.200
G1 E0.80000 F2100.000
;TYPE:Support material interface
;WIDTH:0.35
G1 F1200.000
G1 X137.171 Y103.990 E0.08681
G1 X137.095 Y103.633 E0.00931
G1 X136.916 Y102.964 E0.01769
G1 X136.663 Y102.198 E0.02059
G1 X136.663 Y108.296 E0.15571
G1 X136.500 Y108.664 E0.01029
G1 X136.156 Y109.291 E0.01825
G1 X136.156 Y100.942 E0.21318
G1 X135.649 Y99.900 E0.02960
G1 X135.649 Y110.178 E0.26244
G1 X135.142 Y111.030 E0.02532
G1 X135.142 Y98.968 E0.30797
G1 X134.635 Y98.058 E0.02661
G1 X134.635 Y111.816 E0.35131
